icons/itsalive-icon.svg

<?xml version="1.0" encoding="UTF-8"?>
<svg width="256px" height="253px" viewBox="0 0 256 253" version="1.1" xmlns="http://www.w3.org/2000/svg" xmlns:xlink="http://www.w3.org/1999/xlink" preserveAspectRatio="xMidYMid">
    <g>
        <path d="M88.2785497,246.569815 L49.5102189,252.59651 C44.9997743,253.466353 40.6291231,250.561476 39.7480965,246.108285 C39.5400926,245.05692 39.5423533,243.97554 39.7547514,242.925032 L44.2799555,221.993448 C17.1586768,198.81858 0,164.581218 0,126.386743 C0,56.5852724 57.3075521,0 128,0 C198.692448,0 256,56.5852724 256,126.386743 C256,196.188214 198.692448,252.773487 128,252.773487 C114.134083,252.773487 100.783116,250.596506 88.2785497,246.569815 Z M140.079579,115.500218 L159.199747,79.7490337 C159.757751,78.7056702 160.049411,77.5435966 160.049411,76.3636919 C160.049411,72.3597836 156.762172,69.1139744 152.707155,69.1139744 L106.191107,69.1139744 C102.699837,69.1139744 99.6913941,71.5414538 98.9959792,74.919643 L87.7647191,129.478877 C87.667531,129.950995 87.6175909,130.431504 87.6175909,130.913276 C87.6122005,134.917181 90.8950619,138.167308 94.9500745,138.172637 L108.591236,138.190566 L110.981803,178.285533 C111.107231,180.389229 112.153496,182.334926 113.848137,183.615941 C117.067928,186.049848 121.676342,185.445661 124.141317,182.266451 L166.870046,127.156915 C167.850865,125.891901 168.382354,124.343099 168.382354,122.749936 C168.382354,118.746027 165.095114,115.500218 161.040098,115.500218 L140.079579,115.500218 Z" fill="#5146F9"></path>
    </g>
</svg>

<svg xmlns="http://www.w3.org/2000/svg" viewBox="0 0 256 252.773">
  <path fill="#5146f9" d="m88.279 246.57-38.769 6.027c-4.51.87-8.88-2.036-9.762-6.489a8.112 8.112 0 0 1 .007-3.183l4.525-20.932C17.159 198.82 0 164.581 0 126.387 0 56.585 57.308 0 128 0c70.692 0 128 56.585 128 126.387 0 69.801-57.308 126.386-128 126.386-13.866 0-27.217-2.176-39.721-6.203zm51.8-131.07L159.2 79.75a7.177 7.177 0 0 0 .85-3.385c0-4.004-3.287-7.25-7.342-7.25h-46.516c-3.491 0-6.5 2.427-7.195 5.806l-11.231 54.559a7.114 7.114 0 0 0-.147 1.434c-.006 4.004 3.277 7.254 7.332 7.26l13.641.018 2.39 40.094a7.224 7.224 0 0 0 2.867 5.33c3.22 2.435 7.828 1.83 10.293-1.349l42.729-55.11a7.19 7.19 0 0 0 1.512-4.406c0-4.004-3.287-7.25-7.342-7.25z"/>
</svg>
